X:433
T:Turkish 7/8
S:Johnny Cradden, Edinburgh
Z:Nigel Gatherer
M:7/8
L:1/8
K:Em
BeeB  efg | Beeg  fed | BeeB  efg | fede fga :|
B2 BA GAB | B2 BA Bcd | B2 BA GAB | AAAG FGA :|]
<end>
<start>
